!!!COM: Kroyer, Hans Ernst
!!!CDT: (1798-1879)
!!!OTL: National Anthem, Denmark
!!!ENC: Davis, Matthew J.
!!Vocal Line Only
**kern
*clefG2
*k[f#c#]
*D:
*M4/4
=1-
8d
=2
4.a
8a
4f#
4d
=3
2b
4r
8r
8d
=4
4.dd
8dd
4cc#
4b
=5
4b
4a
4r
4a
=6
4.c#
8c#
4d
4e
=7
4f#
4g#
4a
4b
=8
2a
2g#
=9
2a
4r
8r
==!|:10
8a
=11
4.cc#
8cc#
4b
4a
=12
4.a
8dd
4dd
4f#
=13
4.b
8b
4b
4b
=14
2b
4a#
8r
8an
=15
4a
4g#
4gn
4f#
=16
4b
4.dd
8dd
8cc#
8b
=17
4b
2a
4c#
=18
2d
4r
8r
==:|!
*-
